X:1
T:Mordred's Lullaby
C:Heather Dale
N:Modern Choreography by Rosina del Bosco Chiaro in the 15th C Italian Style
N:Permission granted for use in dancing
N:Please support Heather through her store, www.HeatherDale.com/store.
P:AA BCBC ACBC AA
K:D dorian
M:6/4
L:1/8
P:A
D6 A4zA | d2c2B2 A3G^F2 | A6 D6 | A2G2FE- E2D2C2 | \
D6 A4zA | d2c2B2 A3G^F2 | A6 D6 | A2G2FE- E2D2C2 ::
P:B
D6 D4D2 | E2E2EE- E2D2E2 | F4F2 F3ED2 | E2E2EE- E4EE | \
E2D2DD- D4zD | E2EE-E2 E2D2E2 | F4F2 FE-E2D2 | E2E2EE- E2D2C2 ||
P:C
D2D2D2 CDD2D2 | CDD2D2 E2E2E2 | D2D2D2 CDD2D2 | CDD2D2 E2E2E2 :|

